X:58
T:Robin Adair
C:arr. Carlo Minasi
M:3/4
L:1/8
B:Chappell's One Hundred Scotch Melodies
B:Arranged for the Concertina by Carlo Minasi
Q:"Andante  "1/4=140
Z:Peter Dunk 2012
K:C
!p!(G2A2B2)|(~c3 d e2)|([GE]<c) ([AF]<c) ([BFG,]<d)|\
[c4E4C4] z2|(G2 [A2^F2] [B2=F2])|
(~[c3E3] [dB,] [e2C2])|([GE]<c) ([AF]<c) ([BFG,]<d)|\
[c4E4C4] z2||!mf![e2c2][e2c2][e2c2]|([gB]>G) G2|
[e2c2] (eg) (g/f/d/B/)|(c3 A G2)|\
!diminuendo(!(g2 fedc)!diminuendo)!|\
(~c3 d e2)|([GE]<c) ([AF]<c) ([BFG,]<d)|[c6E6C6]||

